imgs/engineerIcon.svg

<svg width="38" height="37" viewBox="0 0 38 37" fill="none" xmlns="http://www.w3.org/2000/svg">
<path d="M23.6859 30.7216C24.6547 30.7216 25.4431 29.9332 25.4431 28.9644C25.4431 27.9956 24.6547 27.2072 23.6859 27.2072C22.9233 27.2072 22.279 27.6986 22.0365 28.3786H19.5857V24.8642H22.0365C22.279 25.5443 22.9233 26.0357 23.6859 26.0357C24.6547 26.0357 25.4431 25.2473 25.4431 24.2785C25.4431 23.3097 24.6547 22.5213 23.6859 22.5213C22.9233 22.5213 22.279 23.0127 22.0365 23.6927H19.5857V20.1783H22.0365C22.279 20.8583 22.9233 21.3498 23.6859 21.3498C24.6547 21.3498 25.4431 20.5614 25.4431 19.5926C25.4431 18.6238 24.6547 17.8354 23.6859 17.8354C22.9233 17.8354 22.279 18.3268 22.0365 19.0068H19.5857V17.8354H18.4143V15.3846C19.0943 15.1421 19.5857 14.4978 19.5857 13.7352C19.5857 12.7664 18.7973 11.978 17.8285 11.978C16.8597 11.978 16.0713 12.7664 16.0713 13.7352C16.0713 14.4978 16.5627 15.1421 17.2428 15.3846V17.8354H13.7283V15.3846C14.4084 15.1421 14.8998 14.4978 14.8998 13.7352C14.8998 12.7664 14.1114 11.978 13.1426 11.978C12.1738 11.978 11.3854 12.7664 11.3854 13.7352C11.3854 14.4978 11.8768 15.1421 12.5569 15.3846V17.8354H9.04244V15.3846C9.72248 15.1421 10.2139 14.4978 10.2139 13.7352C10.2139 12.7664 9.42551 11.978 8.4567 11.978C7.48789 11.978 6.69949 12.7664 6.69949 13.7352C6.69949 14.4978 7.19092 15.1421 7.87096 15.3846V17.8354H6.69949V19.0068H4.24876C4.00626 18.3268 3.36195 17.8354 2.59932 17.8354C1.63051 17.8354 0.842102 18.6238 0.842102 19.5926C0.842102 20.5614 1.63051 21.3498 2.59932 21.3498C3.36195 21.3498 4.00626 20.8583 4.24876 20.1783H6.69949V23.6927H4.24876C4.00626 23.0127 3.36195 22.5213 2.59932 22.5213C1.63051 22.5213 0.842102 23.3097 0.842102 24.2785C0.842102 25.2473 1.63051 26.0357 2.59932 26.0357C3.36195 26.0357 4.00626 25.5443 4.24876 24.8642H6.69949V28.3786H4.24876C4.00626 27.6986 3.36195 27.2072 2.59932 27.2072C1.63051 27.2072 0.842102 27.9956 0.842102 28.9644C0.842102 29.9332 1.63051 30.7216 2.59932 30.7216C3.36195 30.7216 4.00626 30.2302 4.24876 29.5501H6.69949V30.7216H7.87096V33.1723C7.19092 33.4148 6.69949 34.0591 6.69949 34.8218C6.69949 35.7906 7.48789 36.579 8.4567 36.579C9.42551 36.579 10.2139 35.7906 10.2139 34.8218C10.2139 34.0591 9.72248 33.4148 9.04244 33.1723V30.7216H12.5569V33.1723C11.8768 33.4148 11.3854 34.0591 11.3854 34.8218C11.3854 35.7906 12.1738 36.579 13.1426 36.579C14.1114 36.579 14.8998 35.7906 14.8998 34.8218C14.8998 34.0591 14.4084 33.4148 13.7283 33.1723V30.7216H17.2428V33.1723C16.5627 33.4148 16.0713 34.0591 16.0713 34.8218C16.0713 35.7906 16.8597 36.579 17.8285 36.579C18.7973 36.579 19.5857 35.7906 19.5857 34.8218C19.5857 34.0591 19.0943 33.4148 18.4143 33.1723V30.7216H19.5857V29.5501H22.0365C22.279 30.2302 22.9233 30.7216 23.6859 30.7216ZM23.6859 28.3786C24.0092 28.3786 24.2716 28.6411 24.2716 28.9644C24.2716 29.2877 24.0092 29.5501 23.6859 29.5501C23.3626 29.5501 23.1002 29.2877 23.1002 28.9644C23.1002 28.6411 23.3626 28.3786 23.6859 28.3786ZM23.6859 23.6927C24.0092 23.6927 24.2716 23.9551 24.2716 24.2785C24.2716 24.6018 24.0092 24.8642 23.6859 24.8642C23.3626 24.8642 23.1002 24.6018 23.1002 24.2785C23.1002 23.9551 23.3626 23.6927 23.6859 23.6927ZM23.6859 19.0068C24.0092 19.0068 24.2716 19.2692 24.2716 19.5926C24.2716 19.9159 24.0092 20.1783 23.6859 20.1783C23.3626 20.1783 23.1002 19.9159 23.1002 19.5926C23.1002 19.2692 23.3626 19.0068 23.6859 19.0068ZM2.59932 20.1783C2.27599 20.1783 2.01358 19.9159 2.01358 19.5926C2.01358 19.2692 2.27599 19.0068 2.59932 19.0068C2.92265 19.0068 3.18506 19.2692 3.18506 19.5926C3.18506 19.9159 2.92265 20.1783 2.59932 20.1783ZM2.59932 24.8642C2.27599 24.8642 2.01358 24.6018 2.01358 24.2785C2.01358 23.9551 2.27599 23.6927 2.59932 23.6927C2.92265 23.6927 3.18506 23.9551 3.18506 24.2785C3.18506 24.6018 2.92265 24.8642 2.59932 24.8642ZM2.59932 29.5501C2.27599 29.5501 2.01358 29.2877 2.01358 28.9644C2.01358 28.6411 2.27599 28.3786 2.59932 28.3786C2.92265 28.3786 3.18506 28.6411 3.18506 28.9644C3.18506 29.2877 2.92265 29.5501 2.59932 29.5501ZM17.8285 13.1494C18.1518 13.1494 18.4143 13.4124 18.4143 13.7352C18.4143 14.0579 18.1518 14.3209 17.8285 14.3209C17.5052 14.3209 17.2428 14.0579 17.2428 13.7352C17.2428 13.4124 17.5052 13.1494 17.8285 13.1494ZM13.1426 13.1494C13.4659 13.1494 13.7283 13.4124 13.7283 13.7352C13.7283 14.0579 13.4659 14.3209 13.1426 14.3209C12.8193 14.3209 12.5569 14.0579 12.5569 13.7352C12.5569 13.4124 12.8193 13.1494 13.1426 13.1494ZM8.4567 13.1494C8.78003 13.1494 9.04244 13.4124 9.04244 13.7352C9.04244 14.0579 8.78003 14.3209 8.4567 14.3209C8.13337 14.3209 7.87096 14.0579 7.87096 13.7352C7.87096 13.4124 8.13337 13.1494 8.4567 13.1494ZM8.4567 35.4075C8.13337 35.4075 7.87096 35.1451 7.87096 34.8218C7.87096 34.4984 8.13337 34.236 8.4567 34.236C8.78003 34.236 9.04244 34.4984 9.04244 34.8218C9.04244 35.1451 8.78003 35.4075 8.4567 35.4075ZM13.1426 35.4075C12.8193 35.4075 12.5569 35.1451 12.5569 34.8218C12.5569 34.4984 12.8193 34.236 13.1426 34.236C13.4659 34.236 13.7283 34.4984 13.7283 34.8218C13.7283 35.1451 13.4659 35.4075 13.1426 35.4075ZM17.8285 35.4075C17.5052 35.4075 17.2428 35.1451 17.2428 34.8218C17.2428 34.4984 17.5052 34.236 17.8285 34.236C18.1518 34.236 18.4143 34.4984 18.4143 34.8218C18.4143 35.1451 18.1518 35.4075 17.8285 35.4075ZM18.4143 29.5501H7.87096V19.0068H18.4143V29.5501Z" fill="white"/>
<path d="M34.519 9.63441V9.635C34.3005 8.78802 33.9643 7.97853 33.5151 7.21941L35.383 5.35091L32.0695 2.03797L30.201 3.90648C29.4418 3.45663 28.6329 3.12042 27.7859 2.90194V0.263184H23.1V2.90194C22.2531 3.12042 21.4442 3.45663 20.685 3.90589L18.8165 2.03739L15.503 5.35032L17.3709 7.21883C16.9217 7.97795 16.5855 8.78744 16.367 9.63441H14.314V10.8059H17.3118L17.4072 10.3367C17.6152 9.31109 18.0176 8.34286 18.6033 7.45781L18.8675 7.05892L17.1589 5.35032L18.816 3.69385L20.5246 5.40245L20.9234 5.13829C21.8079 4.55255 22.7761 4.15014 23.8023 3.94221L24.2715 3.84732V1.43466H26.6145V3.84732L27.0837 3.94279C28.1099 4.15073 29.0781 4.55313 29.9626 5.13887L30.3614 5.40304L32.07 3.69444L33.7271 5.35091L32.0185 7.05951L32.2827 7.4584C32.8684 8.34345 33.2708 9.31167 33.4787 10.3373L33.5742 10.8065H35.9863V13.1494H33.5742L33.4787 13.6186C33.2708 14.6442 32.8684 15.6125 32.2827 16.4969L32.0185 16.8964L33.7271 18.605L32.07 20.2621L30.3614 18.5535L29.9626 18.8176C29.0775 19.4034 28.1093 19.8064 27.0837 20.0137L26.6145 20.1092V23.107H27.7859V21.054C28.6323 20.8361 29.4418 20.4999 30.201 20.05L32.0695 21.9179L35.383 18.6044L33.5151 16.7359C33.9643 15.9768 34.3005 15.1673 34.519 14.3203H37.1578V9.63441H34.519Z" fill="white"/>
<path d="M25.4431 16.6638V17.8353C28.6728 17.8353 31.3005 15.2077 31.3005 11.9779C31.3005 8.74817 28.6728 6.12054 25.4431 6.12054C22.2133 6.12054 19.5857 8.74817 19.5857 11.9779H20.7572C20.7572 9.39424 22.8594 7.29202 25.4431 7.29202C28.0268 7.29202 30.129 9.39424 30.129 11.9779C30.129 14.5616 28.0268 16.6638 25.4431 16.6638Z" fill="white"/>
<path d="M17.2429 20.1783H9.04254V21.3498H17.2429V20.1783Z" fill="white"/>
<path d="M17.2428 27.2072H16.0713V28.3786H17.2428V27.2072Z" fill="white"/>
<path d="M14.8999 27.2072H9.04254V28.3786H14.8999V27.2072Z" fill="white"/>
<path d="M22.3977 35.0666L22.6309 36.2153C29.7827 34.7632 35.342 29.204 36.794 22.0521L35.6454 21.819C34.2882 28.5093 29.088 33.7095 22.3977 35.0666Z" fill="white"/>
<path d="M15.602 1.77494L15.3689 0.626892C8.21704 2.07894 2.6578 7.63818 1.20575 14.7901L2.35438 15.0226C3.71154 8.33345 8.91173 3.13268 15.602 1.77494Z" fill="white"/>
</svg>

<svg xmlns="http://www.w3.org/2000/svg" width="38" height="37" fill="#fff" xmlns:v="https://vecta.io/nano"><path d="M23.686 30.722a1.76 1.76 0 0 0 1.757-1.757 1.76 1.76 0 0 0-1.757-1.757c-.763 0-1.407.491-1.649 1.171h-2.451v-3.514h2.451c.242.68.887 1.171 1.649 1.171a1.76 1.76 0 0 0 1.757-1.757 1.76 1.76 0 0 0-1.757-1.757c-.763 0-1.407.491-1.649 1.171h-2.451v-3.514h2.451c.242.68.887 1.171 1.649 1.171a1.76 1.76 0 0 0 1.757-1.757 1.76 1.76 0 0 0-1.757-1.757c-.763 0-1.407.491-1.649 1.171h-2.451v-1.171h-1.171v-2.451c.68-.243 1.171-.887 1.171-1.649a1.76 1.76 0 0 0-1.757-1.757 1.76 1.76 0 0 0-1.757 1.757c0 .763.491 1.407 1.171 1.649v2.451h-3.514v-2.451c.68-.243 1.172-.887 1.172-1.649a1.76 1.76 0 0 0-1.757-1.757 1.76 1.76 0 0 0-1.757 1.757c0 .763.491 1.407 1.172 1.649v2.451H9.042v-2.451c.68-.243 1.171-.887 1.171-1.649a1.76 1.76 0 0 0-1.757-1.757 1.76 1.76 0 0 0-1.757 1.757c0 .763.491 1.407 1.171 1.649v2.451H6.699v1.171h-2.45c-.242-.68-.887-1.171-1.649-1.171a1.76 1.76 0 0 0-1.757 1.757A1.76 1.76 0 0 0 2.6 21.35c.763 0 1.407-.491 1.649-1.171H6.7v3.514H4.249c-.242-.68-.887-1.171-1.649-1.171a1.76 1.76 0 0 0-1.757 1.757A1.76 1.76 0 0 0 2.6 26.036c.763 0 1.407-.491 1.649-1.171H6.7v3.514H4.249c-.242-.68-.887-1.171-1.649-1.171a1.76 1.76 0 0 0-1.757 1.757A1.76 1.76 0 0 0 2.6 30.722c.763 0 1.407-.491 1.649-1.171H6.7v1.171h1.171v2.451c-.68.242-1.171.887-1.171 1.65a1.76 1.76 0 0 0 1.757 1.757 1.76 1.76 0 0 0 1.757-1.757c0-.763-.491-1.407-1.171-1.65v-2.451h3.514v2.451c-.68.242-1.171.887-1.171 1.65a1.76 1.76 0 0 0 1.757 1.757 1.76 1.76 0 0 0 1.757-1.757c0-.763-.491-1.407-1.171-1.65v-2.451h3.514v2.451c-.68.242-1.171.887-1.171 1.65a1.76 1.76 0 0 0 1.757 1.757 1.76 1.76 0 0 0 1.757-1.757c0-.763-.491-1.407-1.171-1.65v-2.451h1.171V29.55h2.451c.242.68.887 1.171 1.649 1.171zm0-2.343c.323 0 .586.263.586.586s-.262.586-.586.586-.586-.262-.586-.586.262-.586.586-.586zm0-4.686c.323 0 .586.262.586.586s-.262.586-.586.586-.586-.262-.586-.586.262-.586.586-.586zm0-4.686c.323 0 .586.262.586.586s-.262.586-.586.586-.586-.262-.586-.586.262-.586.586-.586zM2.599 20.178c-.323 0-.586-.262-.586-.586s.262-.586.586-.586.586.262.586.586-.262.586-.586.586zm0 4.686c-.323 0-.586-.262-.586-.586s.262-.586.586-.586.586.262.586.586-.262.586-.586.586zm0 4.686c-.323 0-.586-.262-.586-.586s.262-.586.586-.586.586.263.586.586-.262.586-.586.586zm15.229-16.401c.323 0 .586.263.586.586s-.262.586-.586.586-.586-.263-.586-.586.262-.586.586-.586zm-4.686 0c.323 0 .586.263.586.586s-.262.586-.586.586-.586-.263-.586-.586.262-.586.586-.586zm-4.686 0c.323 0 .586.263.586.586s-.262.586-.586.586-.586-.263-.586-.586.262-.586.586-.586zm0 22.258c-.323 0-.586-.262-.586-.586s.262-.586.586-.586.586.262.586.586-.262.586-.586.586zm4.686 0c-.323 0-.586-.262-.586-.586s.262-.586.586-.586.586.262.586.586-.262.586-.586.586zm4.686 0c-.323 0-.586-.262-.586-.586s.262-.586.586-.586.586.262.586.586-.262.586-.586.586zm.586-5.857H7.871V19.007h10.543V29.55zM34.519 9.634v.001a9.29 9.29 0 0 0-1.004-2.416l1.868-1.868-3.314-3.313-1.868 1.869c-.759-.45-1.568-.786-2.415-1.005V.263H23.1v2.639c-.847.218-1.656.555-2.415 1.004l-1.868-1.868-3.314 3.313 1.868 1.869a9.29 9.29 0 0 0-1.004 2.416h-2.053v1.171h2.998l.095-.469a8.12 8.12 0 0 1 1.196-2.879l.264-.399-1.709-1.709 1.657-1.656 1.709 1.709.399-.264a8.11 8.11 0 0 1 2.879-1.196l.469-.095V1.435h2.343v2.413l.469.095a8.11 8.11 0 0 1 2.879 1.196l.399.264 1.709-1.709 1.657 1.656-1.709 1.709.264.399a8.11 8.11 0 0 1 1.196 2.879l.095.469h2.412v2.343h-2.412l-.095.469a8.11 8.11 0 0 1-1.196 2.878l-.264.399 1.709 1.709-1.657 1.657-1.709-1.709-.399.264c-.885.586-1.853.989-2.879 1.196l-.469.096v2.998h1.171v-2.053a9.25 9.25 0 0 0 2.415-1.004l1.868 1.868 3.314-3.314-1.868-1.868a9.29 9.29 0 0 0 1.004-2.416h2.639V9.634h-2.639zm-9.076 7.03v1.172c3.23 0 5.857-2.628 5.857-5.857s-2.628-5.857-5.857-5.857-5.857 2.628-5.857 5.857h1.172c0-2.584 2.102-4.686 4.686-4.686s4.686 2.102 4.686 4.686-2.102 4.686-4.686 4.686zm-8.2 3.514h-8.2v1.171h8.2v-1.171zm0 7.029h-1.171v1.171h1.171v-1.171zm-2.343 0H9.043v1.171H14.9v-1.171zm7.498 7.86l.233 1.149a18.1 18.1 0 0 0 14.163-14.163l-1.149-.233c-1.357 6.69-6.557 11.891-13.248 13.248zM15.602 1.775L15.369.627A18.1 18.1 0 0 0 1.206 14.79l1.149.232A16.93 16.93 0 0 1 15.602 1.775z"/></svg>
